IMB-X-Files/The-Ambassadors-Assets/6616ad725dbc684fa369bd8a_liquibase.svg

<svg fill="none" height="53" viewBox="0 0 243 53" width="243" xmlns="http://www.w3.org/2000/svg"><path d="m76.6024 14.3867v18.7526h11.0949v-3.6563h-7.0642v-11.1383c0-2.1506-1.8203-3.958-4.0307-3.958zm17.0756 5.9807h-3.8574v12.7737h3.8565zm27.822 7.2685c0 1.2473-.563 2.409-2.167 2.409-1.474 0-1.993-1.1185-1.993-2.3658v-7.3126h-3.857v8.3879c0 2.7098 1.69 4.7307 4.506 4.7307 1.387 0 2.774-.5584 3.684-1.8489v1.5481h3.64v-12.7737h-3.857v7.2253zm11.095-7.2685h-3.857v12.7737h3.857zm42.643 4.8586-1.039-.2153c-1.127-.2575-1.604-.4728-1.604-1.1185 0-.6448.651-.9033 1.43-.9033.737 0 1.474.2162 1.474 1.2906h3.9c-.216-2.8819-2.426-4.2147-5.374-4.2147-2.946 0-5.373 1.4625-5.373 4.0859 0 2.6233 1.993 3.4834 4.29 3.9571l1.257.2576c.953.2161 1.473.4737 1.473 1.1617 0 .7313-.649 1.0753-1.603 1.0753-.997 0-1.777-.4305-1.777-1.5913h-4.031c.174 3.1826 2.601 4.4731 5.938 4.4731 3.12 0 5.504-1.4193 5.504-4.3011-.044-2.5378-1.95-3.3979-4.465-3.9571zm9.968 0c.477-1.2473 1.517-2.0651 3.034-2.0651 1.516 0 2.6.7745 2.99 2.0651zm9.794 1.376c0-3.6563-2.556-6.5381-6.717-6.5381-3.987 0-6.89 3.0115-6.89 6.7101 0 3.6996 2.73 6.7093 6.847 6.7093 3.423 0 5.764-1.7624 6.544-4.4722h-3.728c-.563.9456-1.43 1.4193-2.773 1.4193-1.734 0-2.903-1.0753-3.207-2.6666h9.924zm-36.403 3.6555c-.908-.0017-1.778-.3602-2.419-.9971-.642-.6369-1.003-1.5001-1.005-2.4008.002-.9006.363-1.7637 1.005-2.4005.642-.6369 1.511-.9955 2.419-.9974.907.0017 1.777.3602 2.419.9971.641.6369 1.003 1.5001 1.004 2.4008-.043 1.8921-1.56 3.3979-3.423 3.3979zm3.553-9.1616c-1.04-.6448-2.253-.9888-3.553-.9888-3.771 0-6.848 3.0529-6.848 6.7957 0 3.7419 3.077 6.7957 6.848 6.7957 1.3 0 2.513-.344 3.553-.9897v.4728h3.684v-12.7737h-3.684zm-18.981 9.1625c-.908-.0017-1.777-.3602-2.419-.9971s-1.003-1.5001-1.005-2.4008c.002-.9006.363-1.7637 1.005-2.4005.642-.6369 1.511-.9955 2.419-.9974.907.0017 1.777.3602 2.419.9971.642.6368 1.003 1.5001 1.005 2.4008-.002.9007-.363 1.7639-1.005 2.4008s-1.512.9954-2.419.9971zm.434-10.1495c-1.4-.0832-2.792.2619-3.988.9888v-4.818c.001-.4802-.094-.9558-.279-1.3995s-.457-.8469-.799-1.1864-.748-.6087-1.195-.7923c-.448-.1835-.927-.2777-1.411-.2772v20.5159h3.684v-.4728c1.04.6448 2.254.9888 3.554.9888 3.943 0 7.108-3.3114 6.804-7.2676-.216-3.3555-2.99-6.0644-6.37-6.2797zm-51.8759-5.7222c-.2967-.0022-.5907.0542-.8652.1659-.2744.1116-.5238.2763-.7335.4845-.2097.2081-.3757.4556-.4882.728s-.1693.5642-.1671.8586c-.0021.2943.0548.5861.1674.8583.1125.2723.2785.5197.4882.7277.2097.2081.459.3727.7334.4843s.5684.168.865.1658c.2964.0019.5902-.0546.8645-.1663.2742-.1117.5233-.2763.7329-.4844.2096-.208.3755-.4553.4881-.7274.1125-.2722.1695-.5638.1675-.858 0-1.205-.9963-2.237-2.253-2.237zm38.9169 0c-.297-.0021-.591.0544-.865.1661s-.523.2765-.733.4846c-.21.2082-.376.4556-.488.7279-.113.2723-.169.5641-.167.8584-.002.2942.055.5859.167.8581.113.2722.279.5196.488.7276.21.2081.459.3727.733.4844.275.1116.568.1681.865.166.296.0021.59-.0544.865-.166.274-.1117.523-.2763.733-.4843.21-.2081.376-.4554.488-.7276.113-.2722.17-.5639.168-.8582 0-1.205-.997-2.237-2.254-2.237zm-27.475 15.8717c-.907-.0019-1.777-.3605-2.418-.9974-.642-.6368-1.0033-1.4999-1.0052-2.4005.0017-.9007.3632-1.764 1.0042-2.4008.642-.6369 1.512-.9954 2.419-.9971.908.0017 1.778.3602 2.419.9971.642.6368 1.003 1.5001 1.005 2.4008-.002.9007-.363 1.7639-1.005 2.4008-.641.6369-1.511.9954-2.419.9971zm3.51-9.8919v.7745c-1.201-.7555-2.611-1.1169-4.03-1.033-3.424.2152-6.198 2.9251-6.4139 6.2797-.2596 3.9571 2.9037 7.2685 6.8039 7.2685 1.186-.0083 2.351-.3193 3.381-.9033v5.4197c.002 1.0143.409 1.9865 1.132 2.7037.723.7173 1.702 1.1213 2.724 1.1237v-21.6326zm-48.8427-10.3665c5.7638 0 9.7946 2.0641 9.7946 3.9139s-4.0308 3.9139-9.7937 3.9139c-5.7638 0-9.7955-2.0641-9.7955-3.9139.0009-1.8498 3.9872-3.9139 9.7946-3.9139zm.2178 21.0752c-3.1197.7312-6.37 1.5057-8.4507 2.8818-1.0399-.6448-1.6034-1.3761-1.6034-2.065 0-3.0962 5.2004-4.2579 10.2274-5.3764 3.6405-.8168 7.3246-1.6337 9.4044-3.3114v2.7098c0 2.8818-4.8538 4.0436-9.5777 5.1612zm-.1724-6.1933c-3.8148.8601-7.7148 1.7201-9.8817 3.5699v-.6025c0-5.3764 5.9372-6.7525 11.701-8.0853 4.1605-.9897 6.1976-1.4625 7.9308-2.8395v3.0115c0 2.7521-4.9826 3.8707-9.7501 4.9459zm9.7501 4.3867c-2.0372 1.7201-5.6777 2.5811-9.1875 3.3979-2.5571.6034-5.1577 1.2049-6.978 2.1073 1.6469.6034 3.8565.9906 6.3709.9906 5.7203 0 9.7946-2.0226 9.7946-3.9147z" fill="#fff"/></svg>

<svg width="243" height="53" viewBox="0 0 243 53" fill="none" xmlns="http://www.w3.org/2000/svg">
<path d="M76.6024 14.3867V33.1393H87.6973V29.483H80.6331V18.3447C80.6331 16.1941 78.8128 14.3867 76.6024 14.3867ZM93.678 20.3674H89.8206V33.1411H93.6771L93.678 20.3674ZM121.5 27.6359C121.5 28.8832 120.937 30.0449 119.333 30.0449C117.859 30.0449 117.34 28.9264 117.34 27.6791V20.3665H113.483V28.7544C113.483 31.4642 115.173 33.4851 117.989 33.4851C119.376 33.4851 120.763 32.9267 121.673 31.6362V33.1843H125.313V20.4106H121.456V27.6359H121.5ZM132.595 20.3674H128.738V33.1411H132.595V20.3674ZM175.238 25.226L174.199 25.0107C173.072 24.7532 172.595 24.5379 172.595 23.8922C172.595 23.2474 173.246 22.9889 174.025 22.9889C174.762 22.9889 175.499 23.2051 175.499 24.2795H179.399C179.183 21.3976 176.973 20.0648 174.025 20.0648C171.079 20.0648 168.652 21.5273 168.652 24.1507C168.652 26.774 170.645 27.6341 172.942 28.1078L174.199 28.3654C175.152 28.5815 175.672 28.8391 175.672 29.5271C175.672 30.2584 175.023 30.6024 174.069 30.6024C173.072 30.6024 172.292 30.1719 172.292 29.0111H168.261C168.435 32.1937 170.862 33.4842 174.199 33.4842C177.319 33.4842 179.703 32.0649 179.703 29.1831C179.659 26.6453 177.753 25.7852 175.238 25.226ZM185.206 25.226C185.683 23.9787 186.723 23.1609 188.24 23.1609C189.756 23.1609 190.84 23.9354 191.23 25.226H185.206ZM195 26.602C195 22.9457 192.444 20.0639 188.283 20.0639C184.296 20.0639 181.393 23.0754 181.393 26.774C181.393 30.4736 184.123 33.4833 188.24 33.4833C191.663 33.4833 194.004 31.7209 194.784 29.0111H191.056C190.493 29.9567 189.626 30.4304 188.283 30.4304C186.549 30.4304 185.38 29.3551 185.076 27.7638H195V26.602ZM158.597 30.2575C157.689 30.2558 156.819 29.8973 156.178 29.2604C155.536 28.6235 155.175 27.7603 155.173 26.8596C155.175 25.959 155.536 25.0959 156.178 24.4591C156.82 23.8222 157.689 23.4636 158.597 23.4617C159.504 23.4634 160.374 23.8219 161.016 24.4588C161.657 25.0957 162.019 25.9589 162.02 26.8596C161.977 28.7517 160.46 30.2575 158.597 30.2575ZM162.15 21.0959C161.11 20.4511 159.897 20.1071 158.597 20.1071C154.826 20.1071 151.749 23.16 151.749 26.9028C151.749 30.6447 154.826 33.6985 158.597 33.6985C159.897 33.6985 161.11 33.3545 162.15 32.7088V33.1816H165.834V20.4079H162.15V21.0959ZM143.169 30.2584C142.261 30.2567 141.392 29.8982 140.75 29.2613C140.108 28.6244 139.747 27.7612 139.745 26.8605C139.747 25.9599 140.108 25.0968 140.75 24.46C141.392 23.8231 142.261 23.4645 143.169 23.4626C144.076 23.4643 144.946 23.8228 145.588 24.4597C146.23 25.0965 146.591 25.9598 146.593 26.8605C146.591 27.7612 146.23 28.6244 145.588 29.2613C144.946 29.8982 144.076 30.2567 143.169 30.2584ZM143.603 20.1089C142.203 20.0257 140.811 20.3708 139.615 21.0977V16.2797C139.616 15.7995 139.521 15.3239 139.336 14.8802C139.151 14.4365 138.879 14.0333 138.537 13.6938C138.195 13.3543 137.789 13.0851 137.342 12.9015C136.894 12.718 136.415 12.6238 135.931 12.6243V33.1402H139.615V32.6674C140.655 33.3122 141.869 33.6562 143.169 33.6562C147.112 33.6562 150.277 30.3448 149.973 26.3886C149.757 23.0331 146.983 20.3242 143.603 20.1089ZM91.7271 14.3867C91.4304 14.3845 91.1364 14.4409 90.8619 14.5526C90.5875 14.6642 90.3381 14.8289 90.1284 15.0371C89.9187 15.2452 89.7527 15.4927 89.6402 15.7651C89.5277 16.0375 89.4709 16.3293 89.4731 16.6237C89.471 16.918 89.5279 17.2098 89.6405 17.482C89.753 17.7543 89.919 18.0017 90.1287 18.2097C90.3384 18.4178 90.5877 18.5824 90.8621 18.694C91.1365 18.8056 91.4305 18.862 91.7271 18.8598C92.0235 18.8617 92.3173 18.8052 92.5916 18.6935C92.8658 18.5818 93.1149 18.4172 93.3245 18.2091C93.5341 18.0011 93.7 17.7538 93.8126 17.4817C93.9251 17.2095 93.9821 16.9179 93.9801 16.6237C93.9801 15.4187 92.9838 14.3867 91.7271 14.3867ZM130.644 14.3867C130.347 14.3846 130.053 14.4411 129.779 14.5528C129.505 14.6645 129.256 14.8293 129.046 15.0374C128.836 15.2456 128.67 15.493 128.558 15.7653C128.445 16.0376 128.389 16.3294 128.391 16.6237C128.389 16.9179 128.446 17.2096 128.558 17.4818C128.671 17.754 128.837 18.0014 129.046 18.2094C129.256 18.4175 129.505 18.5821 129.779 18.6938C130.054 18.8054 130.347 18.8619 130.644 18.8598C130.94 18.8619 131.234 18.8054 131.509 18.6938C131.783 18.5821 132.032 18.4175 132.242 18.2095C132.452 18.0014 132.618 17.7541 132.73 17.4819C132.843 17.2097 132.9 16.918 132.898 16.6237C132.898 15.4187 131.901 14.3867 130.644 14.3867ZM103.169 30.2584C102.262 30.2565 101.392 29.8979 100.751 29.261C100.109 28.6242 99.7477 27.7611 99.7458 26.8605C99.7475 25.9598 100.109 25.0965 100.75 24.4597C101.392 23.8228 102.262 23.4643 103.169 23.4626C104.077 23.4643 104.947 23.8228 105.588 24.4597C106.23 25.0965 106.591 25.9598 106.593 26.8605C106.591 27.7612 106.23 28.6244 105.588 29.2613C104.947 29.8982 104.077 30.2567 103.169 30.2584ZM106.679 20.3665V21.141C105.478 20.3855 104.068 20.0241 102.649 20.108C99.225 20.3232 96.451 23.0331 96.2351 26.3877C95.9755 30.3448 99.1388 33.6562 103.039 33.6562C104.225 33.6479 105.39 33.3369 106.42 32.7529V38.1726C106.422 39.1869 106.829 40.1591 107.552 40.8763C108.275 41.5936 109.254 41.9976 110.276 42V20.3674L106.679 20.3665ZM57.8363 10C63.6001 10 67.6309 12.0641 67.6309 13.9139C67.6309 15.7637 63.6001 17.8278 57.8372 17.8278C52.0734 17.8278 48.0417 15.7637 48.0417 13.9139C48.0426 12.0641 52.0289 10 57.8363 10ZM58.0541 31.0752C54.9344 31.8064 51.6841 32.5809 49.6034 33.957C48.5635 33.3122 48 32.5809 48 31.892C48 28.7958 53.2004 27.6341 58.2274 26.5156C61.8679 25.6988 65.552 24.8819 67.6318 23.2042V25.914C67.6318 28.7958 62.778 29.9576 58.0541 31.0752ZM57.8817 24.8819C54.0669 25.742 50.1669 26.602 48 28.4518V27.8493C48 22.4729 53.9372 21.0968 59.701 19.764C63.8615 18.7743 65.8986 18.3015 67.6318 16.9245V19.936C67.6318 22.6881 62.6492 23.8067 57.8817 24.8819ZM67.6318 29.2686C65.5946 30.9887 61.9541 31.8497 58.4443 32.6665C55.8872 33.2699 53.2866 33.8714 51.4663 34.7738C53.1132 35.3772 55.3228 35.7644 57.8372 35.7644C63.5575 35.7644 67.6318 33.7418 67.6318 31.8497V29.2686Z" fill="white"/>
</svg>
